img/svg/in.svg

<svg xmlns="http://www.w3.org/2000/svg" viewBox="293 383 26 26" enable-background="new 293 383 26 26"><path fill="#D5D5D5" d="M316.8 383h-23.8v26h26v-26h-2.2zm-14.5 7.6c0 .5-.2.9-.5 1.2-.3.3-.8.5-1.2.5s-.9-.1-1.2-.5c-.3-.3-.5-.7-.5-1.1 0-.5.2-.9.5-1.2.3-.3.7-.4 1.2-.4s.9.1 1.2.4c.3.3.5.6.5 1.1zm-3.3 2.9h3.2v10.5h-3.2v-10.5zm11.7 4.7c0-1.5-.5-2.3-1.6-2.3-.4 0-.7.1-1 .4-.3.2-.5.5-.6.9-.1.2-.1.5-.1.8v6h-3.2c0-5.2 0-8.7-.1-10.5h2.8l.2 1.5c.3-.5.8-1 1.4-1.3.6-.3 1.2-.5 1.8-.5 1.2 0 2.2.4 2.8 1.3.6.9.9 1.9.9 3.3v6.2h-3.2l-.1-5.8z"/></svg>

<?xml version="1.0" encoding="utf-8"?>
<!-- Generator: Adobe Illustrator 18.0.0, SVG Export Plug-In . SVG Version: 6.00 Build 0)  -->
<!DOCTYPE svg PUBLIC "-//W3C//DTD SVG 1.1//EN" "http://www.w3.org/Graphics/SVG/1.1/DTD/svg11.dtd">
<svg version="1.1" id="Layer_1" xmlns="http://www.w3.org/2000/svg" xmlns:xlink="http://www.w3.org/1999/xlink" x="0px" y="0px"
	 viewBox="293 383 26 26" enable-background="new 293 383 26 26" xml:space="preserve">
<path fill="#D5D5D5" d="M316.8,383h-20.6c0,0-3.2,0-3.2,0v26h3.2h20.6h2.2v-26H316.8z M302.3,390.6c0,0.5-0.2,0.9-0.5,1.2
	c-0.3,0.3-0.8,0.5-1.2,0.5s-0.9-0.1-1.2-0.5c-0.3-0.3-0.5-0.7-0.5-1.1c0-0.5,0.2-0.9,0.5-1.2c0.3-0.3,0.7-0.4,1.2-0.4
	c0.5,0,0.9,0.1,1.2,0.4C302.1,389.8,302.3,390.1,302.3,390.6z M299,393.5h3.2V404H299V393.5z M310.7,398.2c0-1.5-0.5-2.3-1.6-2.3
	c-0.4,0-0.7,0.1-1,0.4c-0.3,0.2-0.5,0.5-0.6,0.9c-0.1,0.2-0.1,0.5-0.1,0.8v6h-3.2c0-5.2,0-8.7-0.1-10.5h2.8l0.2,1.5h0
	c0.3-0.5,0.8-1,1.4-1.3c0.6-0.3,1.2-0.5,1.8-0.5c1.2,0,2.2,0.4,2.8,1.3c0.6,0.9,0.9,1.9,0.9,3.3v6.2h-3.2L310.7,398.2L310.7,398.2z"
	/>
</svg>
